X:1
T:Lord, what is man
T:Henry Purcell
T:Lord, what is man
T:Harmonia sacra
C:Henry Purcell
%%score 1 2 { ( 3 5 ) | ( 4 6 ) }
L:1/8
Q:1/4=70
M:4/4
K:Bb
V:1 treble-8 nm="Tenor" snm="T"
V:2 treble-8 transpose=-12 nm="Viola da Gamba" snm="V.Gam."
V:3 treble nm="Harpsichord" snm="Hpschd."
V:5 treble 
V:4 bass 
V:6 bass 
V:1
 z2 B4 d<G | G2 B2 ^F>A A>B | c>d B>A B3 B | z2 d4 g<d | d2 e2 =B>d d>e | f>g e>d e3 e | %6
w: Lord, what is|man, lost man, That Thou shouldst|be so mind- ful of him?|Lord, what is|man, lost man, That Thou shouldst|be so mind- ful of him?|
 z e/e/ e/A/A z A B>c | d3 d z2 B>A | A/B/ c3 z c/c/ f>f | f<^c d3 d d>c | d4 z2 A2- | %11
w: That the Son of God for- sook his|glo- ry, His a-|bode. _ _ To be- come a|poor, _ _ tor- men- ted|man! Lord,|
 A2 c<^F F2 z B/D/ | E2 E>D D2 z/ D/D/=E/ | F>F F>=E E3 E | z G/G/ c<G c>c =B>c | d3 d z2 d>c | %16
w: _ what is man, lost, _|_ lost _ man, That Thou shouldst|be so mind- ful of him?|That the Son of God for- sook his|glo- ry, His a-|
 c/d/ =e3 z e/f/ g<c | cd/A/ B3 B B>A | A2 z A d/d/d z d | d/c/B/A/ G>B A2 G^F/G/ | ^F4 z AAA | %21
w: bode. _ _ To be- come a|poor, _ _ _ tor- men- ted|man! The De- i- ty was|shrunk _ _ _ _ in- to _ _ a|span, And that for|
 B2 z =B c2 ^c2- | c2 dD D/=E/F z E/D/ | D4 z ddd | e2 z =e f2 ^f2- | f2 gG G/A/B z A/G/ | G8 | %27
w: me, for me, O|_ won- drous love, _ _ for _|me, And that for|me, for me, O|_ won- drous love, _ _ for _|me.|
 z2 z ^F A2 z A | d>d d/=e/d/e/ ^f3 f | ^f<=e e>e e>e e>f | g/^c/c cc/c/ c2 c/d/=e/d/ | %31
w: Re- veal, re-|veal, ye glo- * * * * rious|spi- rits, when you knew the way the|Son of God took to re- new lost _ _ _|
 d>A A>=B GG G>^F | A4 z2 d2 | d<=B G2 z2 B2 | d2 gd/d/ d2 gd/d/ | d/d/d z d d/=e/d/e/ ^f/d/e/f/ | %36
w: man, Your va- cant pla- ces to sup-|ply; Blest|spi- rits tell, tell|which, which did ex- cel, which was more|pre- va- lent, your joy _ _ _ _ _ _ _|
 g^f/=e/ d/e/d/c/ =B/c/B/A/ G/A/G/A/ | =B>B ^c>d D>D D2 | z2 z A c2 cc/c/ | c>c c>=B B>B B2 | %40
w: _ _ _ _ _ _ _ _ _ _ _ _ _ _ _|* or your as- ton- ish- ment.|That man should be as-|sum'd in- to the De- i- ty,|
 z =B d<D !courtesy!_E2 z d | e2 z e ^F4 | z d ^f<A B2 z f | g6 z G | G8 |[M:3/4][Q:1/4=105] z6 | %46
w: That for a worm, a|God should die,|That for a worm, a|God should|die.||
 z6 | z6 | d4 z2 | f3 e d2 | c4 z2 | e4 z2 | g3 f e2 | d3 ed>c | B3 A G2 | G4 d2 | g2 f2 g2 | %57
w: ||Oh!|oh! for a|quill,|Oh!|oh! for a|quill drawn _ _|_ from your|wing To|write _ the|
 e2 c2 c/d/e | d2 G2 d2 | f2 e2 f2 | d2 B2 B/c/d | c2 F2 f2 | e>d c3 B | B6 | d4 z2 | g3 f =e2 | %66
w: prai- ses, the _ _|prai- ses, to|write _ the|prai- ses, the _ _|prai- ses of|_ e- ter- nal|love;|Oh!|oh! for a|
 ^c4 z2 | f4 z2 | a3 g f2 | =e3 fef/g/ | f4 =ed | d4 d2 | d2 c2 B2 | A2 BA GF | c2 dc BA | %75
w: voice,|Oh!|oh! for a|voice like _ _ _|yours, to _|sing That|an- * them|here, _ _ which _|once, _ _ which _|
 d>=ed>e f2 | =e>d c3 f | f2 =e3 f | f4 z2 | ^f4 z2 | g3 d e2 | c4 A2 | A2 cB AG | ^F4 d2 | %84
w: once _ _ _ you|sung, _ _ you|sung _ a-|bove:|Oh!|oh! for a|voice like|yours _ _ to _|sing That|
 =B4 B2 | c4 d2 | e>d c2 f2 | d>=ed>efg/f/ | =e>^fe>fga/g/ | ^f>=e d3 g | g2 ^f3 g | %91
w: an- them|here, which|once _ _ you|sung, _ _ _ _ _ _|_ _ _ _ _ _ _|* * * you|sung _ a-|
[M:4/4][Q:1/4=80] g2 x6 | z2 d>^c dA B A/G/ | ^FD z2 z4 | z2 d>^c dA B A/G/ | %95
w: bove.|Hal- le- lu- jah, hal- le- *|lu- jah!|Hal- le- lu- jah, hal- le- *|
 ^FD z/ d/A/c/ B/g/d/f/ e/d/c/B/ | A/c/G/B/ A/G/F/E/ D/d/ c/B/ A>G | G2 z2 z4 | z2 g>^f gd e d/c/ | %99
w: lu- jah! Hal- * * * * * * * * * *|* * * * * * * * * * le- * lu- *|jah,|Hal- le- lu- jah, hal- le- *|
 BG d/c/B z2 f/e/d | z2 g/f/e e/d/c e/d/c | d/c/B d/c/B AF B/c/ d/e/ | f/e/d c/d/e dB z2 | %103
w: lu- jah! Hal- * * Hal- * *|Hal- * * * * * * * *|* * * * * le- lu- jah, hal- * le- *|lu- * jah! hal- * le- lu- jah!|
 z4 z2 d>e | ff ^f>f gg g>g | g!courtesy!=f f>=e ee z/ f/e/g/ | %106
w: Hal- le-|lu- jah, hal- le- lu- jah! Hal- le-|lu- jah, hal- le- lu- jah! Hal- * *|
 f/g/=e/g/ f/g/e/g/ f/g/e/g/ f e/d/ | ^cA d/=e/c/e/ d/e/c/e/ d/f/e | f =e/d/ f/e/ d/^c/ dd z2 | %109
w: * * * * * * * * * * * * * le- *|lu- jah, Hal- * * * * * * * * * le-|lu- jah, _ hal- * le- * lu- jah!|
 z4 z2 d/e/d/c/ | =B/c/B/d/ c/d/e/_B/ A/B/A/c/ B/c/d/A/ | G/A/G/B/ A/B/c/G/ ^FD A>A | AAAA ABcc | %113
w: Hal- * * *||* * * * * * * le- lu- jah, Hal- le-|lu- jah, hal- le- lu- jah! Hal- le-|
 cccc ccdd | dd d/c/B/c/ A/c/B/A/ G/B/A/G/ | ^F/G/D/F/ =E/G/F/A/ G/B/ A/B/ c/B/A/G/ | %116
w: lu- jah, hal- le- lu- jah! Hal- le-|lu- jah, hal- * * * * * * * * * * *|* * * * * * * * * * le- * lu- * * *|
 G2 z2 z2 d>d | dd d/c/B/c/ A/c/B/A/ G/B/A/G/ | ^F/G/D/F/ =E/G/F/A/ G/B/ A/B/ c/B/A/G/ | G8 |] %120
w: jah! Hal- le-|lu- jah, hal- * * * * * * * * * * *|* * * * * * * * * * le- * lu- * * *|jah!|
V:2
 G8 | G4 G4- | G4 G4 | G8- | G2 G2 G4- | G4 c4 | F8 | F4 F4 | F4 F4 | =E4 _E4 | D8- | D6 D2 | %12
 c4 B4 | =B4 c4 | c8 | c8 | c8 | d4 =e4 | f4 f4 | =e4 ^c4 | d8 | g2 =e2 a4 | b4 a2 A2 | d4 =B4 | %24
 c2 ^c2 d4 | e4 d4 | G8 | d8 | d8 | d8 | d8 | d4 =e4 | d8 | G8 | G8- | G4 ^F4 | =E8- | E4 D4 | %38
 D4 D4 | D4 G4 | G4 c4 | c4 d3 D | d4 d4 | e2 c2 d4 | G8 |[M:3/4] g4 z2 | b3 a g2 | ^f6 | g4 G2 | %49
 d4 z2 | f3 e d2 | c4 z2 | e3 d c2 | g2 a2 b2 | c'2 d'2 d2 | g6 | =b4 g2 | c'4 c2 | g4 g2 | a4 a2 | %60
 b4 B2 | f4 d2 | e2 f2 F2 | B6 | b3 c' b>a | g3 a bg | a3 g f=e | d3 ^c d=e | f3 =e fg | a4 b2 | %70
 g2 a2 A2 | d4 z2 | =e6 | f4 fg | a2 ba gf | b2 c'b ag | c'b ag f2 | c6 | F2 f2 =e2 | d2 d'2 c'2 | %80
 b2 a2 g2 | a2 d4 | g4 c2 | d3 =e ^fd | g4 f2 | e4 d2 | c4 A2 | B4 =B2 | c4 ^c2 | dc BA G2 | %90
 d4 D2 |[M:4/4] G2 g>^f gd ed/c/ | BG g2 f2 e2 | d2 d'>^c' d'a ba/g/ | ^fd g2 =f2 c2 | %95
 d=e^fd g2 c2 | f2 F2 B>c dD | G2 g>^f gd ed/c/ | BGga bgc'd' | g2 z2 a/g/f z2 | %100
 b/a/g z2 c'/b/a c'/b/a | b/a/g b/a/g f/e/d d/c/B | d/c/B fF B2 B/c/d/e/ | f/e/d ef B2 b2 | %104
 a2 d'>c' b2 g>a | b2 =B2 c2 ^c2 | dad'a d'ad'g | a2 f/g/=e/g/ f/g/e/g/ fg | abga dc B/c/A/c/ | %109
 B/c/A/B/ G/B/A Dd^fd | gdec fcdB | eBcA d=e^fd | gfed edcB | AG^F=E DCB,A, | G,ABG cdec | %115
 dBcd ecdD | G>A G/B/A/c/ B/d/c/e/ dD | GABG cdec | dBcd ecdD | G8 |] %120
V:3
 [B,DG]8- | [B,DG]4 [A,D^F]4- | [A,DF]4 [B,DG]4 | [=B,DG]8- | [B,DG]2 [CEG]2 [=B,DG]4- | %5
 [B,DG]4 [CEG]4 | [CEA]8 | [B,DB]4 [FBd]4 | [FAc]4 [CFA]2 [Acf]2 | [Bf]2 [Bd-]2 [Gd-]4 | %10
 [^FAd]4 [A,DF]4 | [D^FA]6 [D=FB]2 | B2 A2 B4 | [DG]4 [=EG]4 | [=EGc]8 | [F=Bd]4 [DFB]4 | %16
 [=EGc]4 [CEG]4 | [CFA]2 [DFB]2 [CG]4 | [CFA]4 [A,DA]4 | [B,DG]4 [A,=E]4 | [A,D^F]4 [DFA]4 | %21
 B3 =B [Ac]2 [A^c]2- | [Ac]2 [Gd]2 A4- | [DFA]4 [DGd]4 | [Gc]2 B=e d4 | [Bd]2 c2 d4 | %26
 [DGB]6 [B,DG]2 | [A,D^F]6 [DFA]2 | [^FAd]6 [FAd]2 | [GB^c]8 | [GB^cg]8 | [^FAd]2 [DFA]2 [=B,DG]4 | %32
 [D^FA]4 [FAd]4 | [G=Bd]4 [DGB]4 | [=Bdg]8- | [Bdg]4 [A,DA]4 | [DG=B]8- | [DGB]2 [=EG^c]2 [^FAd]4 | %38
 [^F,A,D]4 [A,D^F]4 | [D-^FA]4 [DG=B]4 | [G,=B,D]4 [G,CE]2 z2 | [Ee]4 [DA]4 | [Ad]4 [^Fd]4 | %43
 B2 c2 [GB]2 [^FA]2 | [DGB]8 |[M:3/4] [GBd]4 z2 | [DAd]6 | [DAd]6 | [DGB]6 | [FAd]4 z2 | [CFA]6 | %51
 [EGc]4 z2 | [CGc]4 [EGc]2 | [GBd]4 [GB]2- | [GB]2 [^Fd-]4 | [Gd]6 | [Gd]6 | [EGc]6 | %58
 [DGB]4 [DGB]2 | [CFc]4 [CFc]2 | [DFB]4 [DFB]2 | [CFA]4 [FAd]2 | c6 | [DFB]6 | [DFB]6 | [GBd]6 | %66
 [=EA^c]4 z2 | [DFd]4 z2 | [FAc]6 | [=EA^c]4 [Gc]2 | [FBd]2 [=EA^c]4 | [FAd]4 [DFA]2 | %72
 [G,CG]4 [C-G]2 | [CF]4 [Ac]2 | [Fc]2 [Fd]4 | [DFB]4 [FAc]2 | c6- | c4 B2 | [FA]4 z2 | [D^FA]4 z2 | %80
 [DGd]4 [EGB]2 | [GA]4 [^FA-d]2 | [GAe]6 | [^FAd]4 z2 | [=B,DG]4 [B,DG]2 | [G,CG]4 [DF=B]2 | %86
 [EGc]4 [CFc]2 | B2 G2 [Gd]2 | [=EGc]4 [EGA]2 | [D^FA]4 [DGB]2 | [DA]6 | %91
[M:4/4] [DGB]2 G>^F GD ED/C/ | B,G, [DG]2 [DA]2 [EG]2 | [A,D]2 d>^c dA BA/G/ | %94
 ^FD [DG]2 [DA]2 [EG]2 | [A,D]2 z2 [DG]2 [EG]2 | [A,CF]2 z2 [B,DG]2 [A,D^F]2 | %97
 [B,DG]2 g>^f gd ed/c/ | BG [GBd]4 [Gc][^FA] | [B,DG]2 z2 [CF]2 x2 | GB z2 [Ec]2 [Ec]2 | %101
 FGFG AB [FB]2- | [DFB]2 [CFA]2 [DFB]2 z2 | [FA]2 G[FA] [DFB]4 | [FAc]2 [^FAd]2 [DGd]2 [GBg]2 | %105
 [Gdg]2 [FGd]2 [=EGc]2 [EGA]2 | z8 | [=EA]2 [DA][EG] [DA][EG][DA][EG] | %108
 [Fc][FB][FB][=EA] [DFA]2 z2 | [DG]3 [^C=E] D2 [DAd]2 | [DG=B]2 [CGc]2 [CFA]2 [B,F_B]2 | %111
 [B,EG]2 [CEA]2 [A,D^F]4 | [CEA]4- [CEA][DFB] [EGc]2 | [EGc]2 z2 [^FAc]2 z2 | [DGB]4 [EGA]4 | %115
 ^FD=EF GAGF | [B,DG]2 z2 z2 [D^FA]2 | [DGB]4 [EGA]4 | ^FD=EF GAGF | [B,DG]8 |] %120
V:4
 G,,8 | G,,4 G,,4- | G,,4 G,,4 | G,,8- | G,,2 G,,2 G,,4- | G,,4 C,4 | F,,8 | F,,4 F,,4 | %8
 F,,4 F,,4 | =E,,4 _E,,4 | D,,8- | D,,6 D,,2 | C,4 B,,4 | =B,,4 C,4 | C,8 | C,8 | C,8 | D,4 =E,4 | %18
 F,4 F,4 | =E,4 ^C,4 | D,8 | G,2 =E,2 A,4 | B,4 A,2 A,,2 | D,4 =B,,4 | C,2 ^C,2 D,4 | E,4 D,4 | %26
 G,,8 | D,8 | D,8 | D,8 | D,8 | D,4 =E,4 | D,8 | G,,8 | G,,8- | G,,4 ^F,,4 | =E,,8- | E,,4 D,,4 | %38
 D,,4 D,,4 | D,,4 G,,4 | G,,4 C,4 | C,4 D,3 D,, | D,4 D,4 | E,2 C,2 D,4 | x8 |[M:3/4] G,4 z2 | %46
 B,3 A, G,2 | ^F,6 | G,4 G,,2 | D,4 z2 | F,3 E, D,2 | C,4 z2 | E,3 D, C,2 | G,2 A,2 B,2 | %54
 C2 D2 D,2 | G,6 | =B,4 G,2 | C4 C,2 | G,4 G,2 | A,4 A,2 | B,4 B,,2 | F,4 D,2 | E,2 F,2 F,,2 | %63
 B,,6 | B,3 C B,>A, | G,3 A, B,G, | A,3 G, F,=E, | D,3 ^C, D,=E, | F,3 =E, F,G, | A,4 B,2 | %70
 G,2 A,2 A,,2 | D,4 z2 | =E,6 | F,4 F,G, | A,2 B,A, G,F, | B,2 CB, A,G, | CB, A,G, F,2 | C,6 | %78
 F,,2 F,2 =E,2 | D,2 D2 C2 | B,2 A,2 G,2 | [A,E]2 [D,D]4 | [G,C]4 C,2 | D,3 =E, ^F,D, | G,4 F,2 | %85
 E,4 D,2 | C,4 A,,2 | B,,4 =B,,2 | C,4 ^C,2 | D,C, B,,A,, G,,2 | D,4 D,,2 | %91
[M:4/4] G,,2 G,>^F, G,D, E,D,/C,/ | B,,G,, [G,B,]2 [F,A,]2 [E,B,]2 | [D,^F,]2 D>^C DA, B,A,/G,/ | %94
 ^F,D, [G,B,]2 [=F,A,]2 [C,C]2 | [D,^F,]=E,F,D, [G,B,]2 [C,C]2 | F,2 F,,2 B,,>C, D,D,, | %97
 G,,2 G,>^F, G,D, E,D,/C,/ | B,,G,,G,A, B,G,CD | G,2 z2 A,/G,/F, z2 | B,/A,/G, z2 C/B,/A, C/B,/A, | %101
 B,/A,/G, B,/A,/G, F,/E,/D, D,/C,/B,, | D,/C,/B,, F,F,, B,,2 B,,/C,/D,/E,/ | %103
 F,/E,/D, E,F, B,,2 B,2 | A,2 D>C B,2 G,>A, | B,2 =B,,2 C,2 ^C,2 | D,A,DA, DA,DG, | %107
 A,2 F,/G,/=E,/G,/ F,/G,/E,/G,/ F,G, | A,B,G,A, D,C, B,,/C,/A,,/C,/ | %109
 B,,/C,/A,,/B,,/ G,,/B,,/A,, D,,D,^F,D, | G,D,E,C, F,C,D,B,, | E,B,,C,A,, D,=E,^F,D, | %112
 G,F,E,D, E,D,C,B,, | A,,G,,^F,,=E,, D,,C,,B,,,A,,, | G,,,A,,B,,G,, C,D,E,C, | %115
 D,B,,C,D, E,C,D,D,, | G,,>A,, G,,/B,,/A,,/C,/ B,,/D,/C,/E,/ D,D,, | G,,A,,B,,G,, C,D,E,C, | %118
 D,B,,C,D, E,C,D,D,, | G,,8 |] %120
V:5
 x8 | x8 | x8 | x8 | x8 | x8 | x8 | x8 | x8 | G4 D4 | x8 | x8 | E4 D4 | x8 | x8 | x8 | x8 | x8 | %18
 x8 | x8 | x8 | [DG]4 =E2 F2- | F2 D2 [DF]2 [^C=E]2 | x8 | E2 =E2 A2 B2 | G2 G2 [GB]2 [D^F]2 | x8 | %27
 x8 | x8 | x8 | x8 | x8 | x8 | x8 | x8 | x8 | x8 | x8 | x8 | x8 | x8 | A2 G2 ^F4 | ^F4 B2 A2 | %43
 G2 [EG]2 D4 | x8 |[M:3/4] x6 | x6 | x6 | x6 | x6 | x6 | x6 | x6 | x6 | x6 | x6 | x6 | x6 | x6 | %59
 x6 | x6 | x6 | [EG]2 [FA]4 | x6 | x6 | x6 | x6 | x6 | x6 | x6 | x6 | x6 | x6 | x6 | x6 | x6 | %76
 [=EG]4 [FA]2 | G6 | x6 | x6 | x6 | x6 | x6 | x6 | x6 | x6 | x6 | [DG]4 D2 | x6 | x6 | G2 ^F4 | %91
[M:4/4] x8 | x8 | x8 | x8 | x8 | x8 | x8 | x8 | x8 | x8 | D2 D2 F2 D2- | x8 | x8 | x8 | x8 | x8 | %107
 x8 | x8 | x8 | x8 | x8 | x8 | x8 | x8 | x8 | x8 | x8 | A,2 C2 B,2 A,2 | x8 |] %120
V:6
 x8 | x8 | x8 | x8 | x8 | x8 | x8 | x8 | x8 | x8 | x8 | x8 | x8 | x8 | x8 | x8 | x8 | x8 | x8 | %19
 x8 | x8 | x8 | x8 | x8 | x8 | x8 | x8 | x8 | x8 | x8 | x8 | x8 | x8 | x8 | x8 | x8 | x8 | x8 | %38
 x8 | x8 | x8 | x8 | x8 | x8 | G,,8 |[M:3/4] x6 | x6 | x6 | x6 | x6 | x6 | x6 | x6 | x6 | x6 | x6 | %56
 x6 | x6 | x6 | x6 | x6 | x6 | x6 | x6 | x6 | x6 | x6 | x6 | x6 | x6 | x6 | x6 | x6 | x6 | x6 | %75
 x6 | x6 | x6 | x6 | x6 | x6 | x6 | x6 | x6 | x6 | x6 | x6 | x6 | x6 | x6 | x6 |[M:4/4] x8 | x8 | %93
 x8 | x8 | x8 | x8 | x8 | x8 | x8 | x8 | x8 | x8 | x8 | x8 | x8 | x8 | x8 | x8 | x8 | x8 | x8 | %112
 x8 | x8 | x8 | x8 | x8 | x8 | x8 | x8 |] %120

